docs/.gitbook/assets/icon-video-16@light.svg

<svg width="32" height="32" viewBox="0 0 16 16" fill="none" xmlns="http://www.w3.org/2000/svg">
<rect x="0" y="0" width="16" height="16" fill="#fff"/>
<path fill-rule="evenodd" clip-rule="evenodd" d="M3.75 4.5C3.05964 4.5 2.5 5.05964 2.5 5.75V10.25C2.5 10.9404 3.05964 11.5 3.75 11.5H8.25C8.94036 11.5 9.5 10.9404 9.5 10.25V8.83031V7.16969V5.75C9.5 5.05964 8.94036 4.5 8.25 4.5H3.75ZM10.8356 4.8113C10.452 3.75473 9.43912 3 8.25 3H3.75C2.23122 3 1 4.23122 1 5.75V10.25C1 11.7688 2.23122 13 3.75 13H8.25C9.43912 13 10.452 12.2453 10.8356 11.1887C10.8575 11.2018 10.8795 11.2146 10.9018 11.2271L13.8823 12.9037C14.1145 13.0343 14.3986 13.0319 14.6286 12.8974C14.8586 12.7629 15 12.5164 15 12.25V3.75C15 3.48355 14.8586 3.23711 14.6286 3.10259C14.3986 2.96808 14.1145 2.96569 13.8823 3.09632L10.9018 4.77286C10.8795 4.78539 10.8575 4.79821 10.8356 4.8113ZM11 7.16969V8.83031C11 9.2819 11.2436 9.69838 11.6372 9.91977L13.5 10.9676V5.03239L11.6372 6.08023C11.2436 6.30162 11 6.7181 11 7.16969Z" fill="#000"/>
</svg>

<svg xmlns="http://www.w3.org/2000/svg" width="32" height="32" fill="none" viewBox="0 0 16 16"><path fill="#fff" d="M0 0h16v16H0z"/><path fill="#000" fill-rule="evenodd" d="M3.75 4.5c-.69 0-1.25.56-1.25 1.25v4.5c0 .69.56 1.25 1.25 1.25h4.5c.69 0 1.25-.56 1.25-1.25v-4.5c0-.69-.56-1.25-1.25-1.25zm7.086.311A2.75 2.75 0 0 0 8.25 3h-4.5A2.75 2.75 0 0 0 1 5.75v4.5A2.75 2.75 0 0 0 3.75 13h4.5c1.19 0 2.202-.755 2.586-1.811q.031.02.066.038l2.98 1.677A.75.75 0 0 0 15 12.25v-8.5a.75.75 0 0 0-1.118-.654l-2.98 1.677zM11 7.17v1.66c0 .452.244.868.637 1.09l1.863 1.048V5.032L11.637 6.08A1.25 1.25 0 0 0 11 7.17" clip-rule="evenodd"/></svg>
